X:156
T:Polska efter Carl Gudmundsäter
O:Dalarna
Z:Transcribed to abc by Erik Ronström 080413
R:Polska
M:3/4
L:1/8
K:G
G>B G<B G>B|E>c E<c B>A|(3D2F2A2 d>D|(3D2F2A2 d>A|G>B G<B G>B|
E>c E<c B>A|(3D2F2A2 d>F|G2 G4::d>c B<d g>f|e>d c<B c>D|(3D2F2A2 d>c|
B>A G<e d2|d>c B<d g>f|e>d c<e a>g|f>e d<f b>a|g2 g4:|
(:musicend:)

(:music:)
